X: 2325
M: C
L: 1/8
K: D
uA2 |\
dcdA Bcde | gfed cBAG |\
dAeA fAgA | aAbA dcBA |\
dfeg faeg | f2d2 d2 :|
|: uf2 |\
agfe dfga | b2e2 e2d2 |\
cAeA fAed | c2A2 A2 (Bc) |\
dAeA fAgA | aAbA dcBA |\
dfeg faeg | f2d2 d2 :|


